X:1
T:The Beautiful Garden of Prayer
T:The Beautiful Garden of Prayer
T:Adapted from James Henry Fillmore
T:Eleanor Allen Schroll, 1920
T:Public Domain Courtesy of the Cyber Hymnal™
T:Public Domain Courtesy of the Cyber Hymnal™
C:Adapted from James Henry Fillmore
Z:Public Domain
Z:Courtesy of the Cyber Hymnal™
%%score ( 1 2 ) ( 3 4 )
L:1/8
Q:1/4=140
M:6/4
K:D
V:1 treble 
V:2 treble 
V:3 bass 
V:4 bass 
V:1
 [DF][EG] | [FA]2 [DF]2 [DA]2 [DB]2 [Dd]2- | [Dd][GB] [FA]2 [DF]6 D[DE] | %3
w: 1.~There’s a|gar- den where Je- sus|* is wait- ing, There’s a|
w: 2.~There’s a|gar- den where Je- sus|* is wai- ting, And I|
w: 3.~There’s a|gar- den where Je- sus|* is wait- ing, And He|
 [DF]2 D2 [DE]2 [DF]2 [A,D]2 [A,E]2 | [A,D]8 [DF][EG] [FA]2 | [DF]2 [DA]2 [DB]2 [Dd]3 [GB] [FA]2 | %6
w: place that is won- drous- ly|fair, For it glows|with the light of His pre-|
w: go with my bur- den and|care, Just to learn|from His lips words of com-|
w: bids you to come, meet Him|there; Just to bow|and re- ceive a new bless-|
 [DF]6 [DF][DF] [CE]2 [Ec]2 | [CA]2 [B,E]2 [E^G]2 [EB]2 [EA]4- | [EA]4 || %9
w: sence. ’Tis the beau- tif-|ul gar- den of prayer.||
w: fort In the beau- ti-|ful gar- den of prayer.||
w: ing In the beau- ti-|ful gar- den of prayer.||
"^Refrain" [GA][GB] [Gc]2 [GB]2 [FA]2 | [EG]2 [DF]2 [CE]2 D2 [DF]2 [^EB]2 | %11
w: ||
w: ||
w: ||
 [FA]4 [FA][FB] [Gc]2 [FB]2 [EA]2 | [DG]2 [DF]2 [CE]2 [DF]6- | [DF]2 D[DE] [DF]2 D2 [DF]2 [FA]2- | %14
w: |||
w: |||
w: |||
 [FA]2 [FA][FA] [GB]2 G2 [GB]2 [Gd]2- | [Gd]2 [Gc][GB] [FA]2 D2 [DE]2 [DF]2 | [A,D]2 [A,E]2 | %17
w: |||
w: |||
w: |||
 [A,D]6- [A,D]4 |] %18
w: |
w: |
w: |
V:2
 x2 | x10 | x12 | x12 | x12 | x12 | x12 | x12 | x4 || x8 | x6 D2 x4 | x12 | x12 | x2 D x9 | x12 | %15
 x6 D2 x4 | x4 | x10 |] %18
V:3
 [D,A,][D,A,] | [D,D]2 [D,A,]2 [F,A,]2 G,2 [G,B,]2- | [G,B,][G,D] [D,D]2 [D,A,]6 [D,F,][D,G,] | %3
w: ~ ~|~ ~ ~ ~ ~|~ ~ ~ ~ ~ ~|
 [D,A,]2 [D,F,]2 [B,,^G,]2 [A,,A,]2 [A,,F,]2 [A,,=G,]2 | [D,F,]8 [D,A,][D,A,] [D,D]2 | %5
w: ~ ~ ~ ~ ~ ~|~ ~ ~ ~|
 [D,A,]2 [F,A,]2 G,2 [G,B,]3 [G,D] [D,D]2 | [D,A,]6 [D,A,][D,A,] [E,A,]2 [E,A,]2 | %7
w: ~ ~ ~ ~ ~ ~|~ ~ ~ ~ ~|
 [E,A,]2 [E,^G,]2 [E,B,]2 [E,D]2 [A,,C]4- | [A,,C]4 || [A,,A,][A,,A,] [A,,A,]2 [A,,A,]2 [A,,A,]2 | %10
w: ~ ~ ~ ~ Oh,||the beau- ti- ful gar-|
 [A,,A,]2 [A,,A,]2 [A,,G,]2 [D,F,]2 [D,A,]2 [D,^G,]2 | %11
w: den, the gar- den of prayer!|
 [D,A,]4 [D,A,][D,A,] [A,,A,]2 [A,,D]2 [A,,C]2 | [A,,B,]2 [A,,A,]2 [A,,A,]2 [D,A,]6- | %13
w: Oh, the beau- ti- ful gar-|den of prayer! There|
 [D,A,]2 [D,F,][D,G,] [D,A,]2 [D,F,]2 [D,A,]2 [B,,=C]2- | %14
w: * my Sav- ior a- waits, and|
 [B,,C]2 [B,,=C][B,,C] [G,B,]2 [G,B,]2 G,2 [G,B,]2- | %15
w: * He o- pens the gates To|
 [G,B,]2 [G,,B,][G,,C] [A,,D]2 [B,,F,]2 [_B,,^G,]2 [A,,A,]2 | [A,,F,]2 [A,,G,]2 | %17
w: * the beau- ti- ful gar- den|of prayer.|
 [D,F,]6- [D,F,]4 |] %18
w: |
V:4
 x2 | x6 G,2 x2 | x12 | x12 | x12 | x12 | x12 | x12 | x4 || x8 | x12 | x12 | x12 | x12 | x12 | %15
 x12 | x4 | x10 |] %18

